X:286
T:Reel 286
M:4/4
K:Amaj
L:1/8
E3C DCDF|E2EC DCB,A,|B,E,EF, G,A,B,D||EDB,D EGFE:||2EDEF GAGF|EAAG AcBA|GEFG EB,B,F|GABG AcBA|GEDB, CA,A,D|G2BG AcBA|GEEF G2BG|AcBA GABA|GEDB, B,A,A,2|
